!!!!SEGMENT: pl-wnifc--3119-n--003_szymanowska-maria--duoze-exercices-no-3-agitato.krn
!!!cenid: 18xx:3835
!!!COM: Szymanowska, Maria
!!!COM-rismID: pe140138
!!!CDT: 1789/12/14-1831/07/25
!!!CNT: Polish
!!!GTL: Duoze Exercices
!!!OTL: No. 3. Agitato
!!!OMV: 003
!!!PDT: 1825
!!!AGN:
!!!SMS-siglum: PL-Wnifc
!!!SMS-shelfmark: 3119/n
!!!SMS-shelfwork: 001-003 G
!!!SMS-variant:
!!!SMS-altvar:
!!!NIFC-rismSourceID: 1001142147
!!!NIFC-rismChildID: 1001142151
!!!NIFC-islandoraID: nifc:212170
!!!URL-pdf-islandora: https://repozytorium.nifc.pl/islandora/object/nifc%3A212170/datastream/PDF/view
!!!URL-scan: https://polish.musicsources.pl/pl/lokalizacje/galeria/druki-muzyczne/16830 @EN{Scan on Polish Music Sources Website} @PL{Skany w portalu Dziedzictwo Muzyki Polskiej w otwartym dostępie}
!!!ONB-nifc:
!!!AIN: 2 piano
!!!key: g
!!!OMD:
!!!OMD-mod: Agitato
!!!filter-modern: sic -sq | shed -k -e "s/LO:N:vis/LO:n:vis:/L" | shed -e "s/TX(.*):t=P:/tx$1:t=P:/LG" | shed -e "s/:rj/:RJ/L" | shed -k -e "s/([^a-gA-Gn#X-])[<>]/$1/g" | shed -e "s/LO:DY:(a|b|rj)/LO:dy:$1/L" | shed -e "s/-//B" | autostem -r | modori -m
**kern	**fing	**kern	**fing	**dynam
*part2	*part 2	*part1	*part 1	*part1
*staff2	*	*staff1	*	*
*I"Pianoforte	*	*I"Pianoforte	*	*
*I'	*	*I'	*	*
*Ipiano	*	*Ipiano	*	*
*ICklav	*	*ICklav	*	*
*IGsolo	*	*IGsolo	*	*
*mI'pf	*	*mI'pf	*	*
*clefF4	*	*clefG2	*	*
*k[b-e-]	*	*k[b-e-]	*	*
*g:	*	*g:	*	*
*M12/8	*	*M12/8	*	*
*>[A,A,B,B,C]	*	*>[A,A,B,B,C]	*	*
*>A	*	*>A	*	*
!	!	!LO:TX:a:t=Agitato:mod=	!	!LO:MO:null:mod=p
4r	.	(8g\L 8b-	1 3	.
.	.	8a\J) 8cc	2 4	.
=1	=1	=1	=1	=1
!	!	!	!	!LO:MO:null:mod=.
4GG/	.	8b-\ 8dd	3 5	p
.	.	(8b-^<\L 8dd	.	.
8r	.	8cc\J) 8ee-	.	.
4G\ 4B- 4d	.	8b-`\ 8dd	.	.
.	.	(8bb-^<\L 8ddd	.	.
8r	.	8ccc\J) 8eee-	.	.
4DD/ 4D	.	8bb-`\ 8ddd	.	.
.	.	(8f#X^>/L 8a	.	.
8r	.	8g/J) 8b-	.	.
4D\ 4A 4c	.	8a`\ 8cc	.	.
.	.	(8ff#X^<\L 8aa	.	.
8r	.	8gg\J) 8bb-	.	.
=2	=2	=2	=2	=2
4DD/	.	8aa\ 8ccc	.	.
.	.	(8f#X^</L 8a	.	.
8r	.	8g/J) 8b-	.	.
4D\ 4A 4c	.	8a`\ 8cc	.	.
.	.	(8aa^<\L 8ccc	.	.
8r	.	8bb-\J) 8ddd	.	.
4GG/	.	8aa`\ 8ccc	.	.
!	!	!LO:SIC:s=(8g^</L 8b-	!	!
.	.	8g^</L 8b-	.	.
!	!	!LO:SIC:s=8a/J 8cc)	!	!
8r	.	8a/J 8cc	.	.
4G\ 4B- 4d	.	8b-`\ 8dd	.	.
.	.	(8gg^<\L 8bb-	.	.
8r	.	8aa\J) 8ccc	.	.
=3	=3	=3	=3	=3
4BBB-/	.	8bb-\ 8ddd	.	.
.	.	(8g^>/L 8b-	.	.
8r	.	8a/J) 8cc	.	.
4BB-\ 4D 4G	.	8b-`\ 8dd	.	.
.	.	(8gg^<\L 8bb- 8ddd	.	.
8r	.	8ggg\J)	.	.
4CC/	.	8eee-\	.	.
.	.	(8g^>/L 8a	.	.
8r	.	8cc/J)	.	.
4C\ 4E- 4A	.	8ee-\	.	.
.	.	(8gg^<\L 8aa 8ccc	.	.
8r	.	8eee-\J)	.	.
=4	=4	=4	=4	=4
4DD/	.	8ddd`\	.	.
.	.	(8dd^<\L 8gg	.	.
8r	.	8bb-\J)	.	.
4D\ 4A 4c	.	8ddd\	.	.
.	.	(8a^<\L 8cc	.	.
8r	.	8ff#X\J)	.	.
8G\ 8B-	.	8gg`\	.	.
(8E-\L	2	(8A/L 8c	.	.
8D\J)	1	8f#X/J)	.	.
8GG/	5	8B-/ 8g	.	.
4r	.	(8g^>\L 8b-	.	.
.	.	8dd\J)	.	.
!!LO:LB:g=original
==:||:5	==:||:5	==:||:5	==:||:5	==:||:5
*>B	*	*>B	*	*
4GG/	.	8gg\	.	f
.	.	(8f^>/L 8bn	.	.
8r	.	8dd/J)	.	.
!LO:MO:mod=4F\ 4d	!	!	!	!
8r	.	8gg\	.	.
!LO:MO:null:mod=.	!	!	!	!
4F\ 4d	.	(8gg\L 8bbn 8ddd	.	.
!LO:MO:null:mod=8r	!	!	!	!
.	.	8ggg\J)	.	.
!LO:MO:mod=8E-\ 8c	!	!	!	!
8r	.	4ccc\	.	.
!LO:MO:null:mod=*clefG2	!	!	!	!
*	*	*	*	*
!LO:MO:mod=(8cc`\L 8ee-	!	!	!	!
8E-\ 8c	.	.	.	.
!LO:MO:mod=*null:null	!	!	!	!
*clefG2	*	*	*	*
!LO:MO:mod=8dd`\J 8ff	!	!	!	!
(8cc`\L 8ee-	.	8r	.	.
!LO:MO:mod=4ee-\) 4gg	!	!	!	!
8dd`\J 8ff	.	8r	.	.
!LO:MO:null:mod=.	!	!	!	!
4ee-\) 4gg	.	(8c/L 8e-	.	.
!LO:MO:null:mod=8r	!	!	!	!
.	.	8g/J)	.	.
*clefF4	*	*	*	*
=6	=6	=6	=6	=6
4FF/	.	8f/	.	.
!	!	!	!	!LO:DY:a
.	.	(8f^\L 8cc 8ee-	.	.
8r	.	8gg\J)	.	.
4E-\ 4c	.	8ff`\	.	.
.	.	(8ff^\L 8ccc 8eee-	.	.
8r	.	8ggg\J)	.	.
8D\ 8B-	.	4ddd\ 4fff	.	.
*clefG2	*	*	*	*
(8b-`\L 8dd	.	.	.	.
8cc`\J 8ee-	.	8r	.	.
4dd\) 4ff	.	8r	.	.
.	.	(8B-/L 8d	.	.
8r	.	8f/J)	.	.
*clefF4	*	*	*	*
=7	=7	=7	=7	=7
8GG/ 8G	.	4B-/ 4d 4e-	.	.
*clefG2	*	*	*	*
8g\L 8b-	.	.	.	.
8dd\J	.	8r	.	.
4ee-\	.	8r	.	.
.	.	8gg\L 8bb-	.	.
8r	.	8eee-\J	.	.
8r	.	4aa\ 4ccc 4ddd	.	.
8f#X/L 8a	.	.	.	.
8cc#X/J	.	8r	.	.
8dd\	.	8r	.	.
4r	.	8dd\L 8aa	.	.
.	.	8ccc\J	.	.
=8	=8	=8	=8	=8
!	!	!LO:TX:b:i:t=Ben marcato:mod=ben marcato	!	!
(8g'/L	.	(8dd'\L 8gg 8bb-	.	.
8e-'/	.	8cc'\ 8gg 8ccc	.	.
8f'/	.	8cc'\ 8ff 8aa	.	.
8d'/	.	8b-'\ 8ff 8bb-	.	.
8e-'/	.	8b-'\ 8ee- 8gg	.	.
8c'/J)	.	8a'\J) 8ee- 8aa	.	.
(8d'/L	.	(8a'\L 8dd 8ff#X	.	.
8B-'/	.	8g'\ 8dd 8gg	.	.
8Bn'/	.	8g'\ 8dd 8ffn	.	.
8c'/	.	8g'\ 8cc 8ee-	.	.
8d'/	.	8g'\ 8b- 8dd	.	.
8e-'/J)	.	8g'\J) 8b- 8cc#X	.	.
=9	=9	=9	=9	=9
4d/	.	8g`\ 8b- 8dd	.	.
.	.	(8b-\L 8dd	.	.
8r	.	8ee-\J	.	.
8r	.	4b-\) 4dd	.	.
(8bb-\L 8ddd	.	.	.	.
8ccc\J) 8eee-	.	8r	.	.
4bb-`\ 4ddd	.	8r	.	.
.	.	(8a\L 8cc	.	.
8r	.	8b-\J 8dd	.	.
8r	.	4a\) 4cc	.	.
*clefF4	*	*	*	*
(8F#X\L 8A	.	.	.	.
8G\J) 8B-	.	8r	.	.
!!LO:LB:g=original
=10	=10	=10	=10	=10
4A\ 4c	.	8r	.	.
.	.	(8f#X/L 8a	.	.
8r	.	8g/J 8b-	.	.
8r	.	4a/) 4cc	.	.
*clefG2	*	*	*	*
(8aa\L 8ccc	.	.	.	.
8bb-\J 8ddd	.	8r	.	.
4aa\) 4ccc	.	8r	.	.
.	.	(<8g/L 8b-	.	.
8r	.	8a/J 8cc	.	.
8r	.	4b-\) 4dd	.	.
*clefF4	*	*	*	*
(8G\L 8B-	.	.	.	.
8A\J) 8c	.	8r	.	.
=11	=11	=11	=11	=11
4B-\ 4d	.	8r	.	.
.	.	(8g\L 8b-	.	.
8r	.	8dd\J	.	.
8r	.	4gg^\)	.	.
*clefG2	*	*	*	*
(8bbn\L 8ddd	.	.	.	.
8ggg\J)	.	8r	.	.
4ccc\ 4eee-	.	8r	.	.
.	.	(8g\L 8cc	.	.
8r	.	8ee-\J)	.	.
8r	.	4gg\	.	.
*clefF4	*	*	*	*
(8C\L 8E-	.	.	.	.
8A\J)	.	8r	.	.
=12	=12	=12	=12	=12
4D/	.	8r	.	.
.	.	(8d/L 8g	.	.
8r	.	8b-/J)	.	.
4DD/	.	8dd\	.	.
.	.	(8a\L 8cc	.	.
8r	.	8ff#X\J)	.	.
8GG/	.	8b-\ 8gg	.	<
(8e-^<\L	.	(8aa\L 8ccc	.	.
8d\J)	.	8fff#X\J)	.	.
8G\	.	8bb-\ 8ggg	.	f
==:|	==:|	==:|	==:|	==:|
*>C	*	*>C	*	*
(8D/L	.	4r	.	.
8BB-/J)	.	.	.	.
=13	=13	=13	=13	=13
4GG/	.	8r	.	.
.	.	(8f/L 8bn	.	.
8r	.	8dd/J)	.	.
8r	.	4gg\	.	.
*clefG2	*	*	*	*
(8bbn\L 8ddd	.	.	.	.
8ggg\J)	.	8r	.	.
4ccc\ 4eee-	.	8r	.	.
.	.	(8g\L 8cc	.	.
8r	.	8ee-\J)	.	.
8r	.	4gg\	.	.
*clefF4	*	*	*	*
(8E-^\L 8G	.	.	.	.
8C\J)	.	8r	.	.
!!LO:LB:g=original
=14	=14	=14	=14	=14
4GG/	.	8r	.	.
.	.	(8c/L 8e-	.	.
8r	.	8f#X/J)	.	.
8r	.	4cc\	.	.
*clefG2	*	*	*	*
(8ee-\L 8ff#X	.	.	.	.
8aa\J)	.	8r	.	.
4gg\	.	8r	.	.
.	.	(8d/L 8g	.	.
8r	.	8bn/J)	.	.
8r	.	4dd\	.	.
*clefF4	*	*	*	*
(8D/L	.	.	.	.
8BBn/J)	.	8r	.	.
=15	=15	=15	=15	=15
4GG\	.	8r	.	.
.	.	(8F/L 8Bn	.	.
8r	.	8d/J)	.	.
8r	.	4g/	.	.
*clefG2	*	*	*	*
(8bn\L 8dd	.	.	.	.
8gg\J)	.	8r	.	.
4cc\ 4ee-	.	8r	.	.
.	.	(8G/L 8c	.	.
8r	.	8e-/J)	.	.
8r	.	4g/	.	.
*clefF4	*	*	*	*
(8E-\L	.	.	.	.
8C\J)	.	8r	.	.
=16	=16	=16	=16	=16
4GG/	.	8r	.	.
!	!	!	!	!LO:MO:mod=!null:null
!	!	!LO:TX:b:t=poco a poco cre_scen_do:problem:dynamics with extension lines	!	!LO:HP:b:t=poco a poco cre_scen_do:ext=ud
.	.	8c/L 8e-	.	<
8r	.	8f#X/J	.	.
8r	.	4.cc^\	.	.
(8F#X^<\L	.	.	.	.
8E-\J)	.	.	.	.
4GG/	.	8r	.	.
.	.	8e-/L 8f#X	.	.
8r	.	8a/J	.	.
8r	.	4.ee-^\	.	.
(8F#X^<\L	.	.	.	.
8E-\J)	.	.	.	.
=17	=17	=17	=17	=17
4GG/	.	8r	.	.
.	.	8a\L 8cc	.	.
8r	.	8ee-\J	.	.
8r	.	4.aa^\	.	.
(8F#X^<\L	.	.	.	.
8E-\J)	.	.	.	.
4GG/	.	8r	.	.
!	!	!	!	!LO:MO:null:mod=.
.	.	8ee-\L 8ff#X	.	[
8r	.	8aa\J	.	.
8r	.	4.eee-^\	.	.
(8F#X^<\L	.	.	.	.
!	!	!	!	!LO:MO:null:mod=[
8E-\J)	.	.	.	.
!!LO:LB:g=original
=18	=18	=18	=18	=18
*	*	*^	*	*
2.GG/ 2.G	.	4ddd/	8bb-\L	.	f
.	.	.	8aa\	.	.
.	.	8ryy	8gg\J	.	.
.	.	8ryy	8b-T>\L	.	.
.	.	8ryy	8a\	.	.
.	.	8ryy	8g\J	.	.
2.AA\ 2.A	.	4ccc/	8ff#X\L	.	.
.	.	.	8ee-\	.	.
.	.	8ryy	8dd\J	.	.
.	.	8ryy	8ccT>\L	.	.
.	.	8ryy	8b-\	.	.
.	.	8ryy	8a\J	.	.
=19	=19	=19	=19	=19	=19
4.BB-\ 4.B-	.	4gg/	8dd\L	.	.
.	.	.	8b-\	.	.
.	.	8ryy	8g\J	.	.
4.BBn\ 4.Bn	.	8ryy	8a-XT>\L	.	.
.	.	8ryy	8g\	.	.
.	.	8ryy	8ff\J	.	.
8C\L 8c	.	8ryy	8cc\L 8ee-	.	sf
8AAn\ 8An	.	8ryy	8f\ 8ff	.	.
8BB-X\J 8B-X	.	8ryy	8b-\J 8dd	.	.
8GG\L 8G	.	8ryy	8e-\L 8ee-	.	.
!	!	!	!LO:SIC:v:s=8a 8cc	!	!
8AA\ 8A	.	8ryy	8a-\ 8cc	.	.
8FF#X\J 8F#X	.	8ryy	8d\J 8dd	.	.
*	*	*v	*v	*	*
=20	=20	=20	=20	=20
8GG/L 8G	.	8g/L 8b-	.	<
8FFn/ 8Fn	.	8a-X/ 8bn	.	.
8EEn/J 8En	.	8g/J 8cc	.	.
8EE-X/L 8E-X	.	8g/L 8b-X 8cc#X	.	.
8DD/ 8D	.	8g/ 8b- 8dd	.	.
8CC#X/J 8C#X	.	8g/J 8b- 8een	.	[
4DD/ 4D	.	4g/ 4b- 4dd	.	.
8r	.	8r	.	.
!	!	!LO:SIC:v:s=4a\ 4ccn 4ff#X	!	!
4D\ 4d	.	4a-\ 4ccn 4ff#X	.	f
8r	.	8r	.	.
=21	=21	=21	=21	=21
*	*	*^	*	*
4GG/ 4G	.	4gg/	8b-\L 8dd	.	.
.	.	.	8at>\	.	.
8r	.	8ryy	8g\J	.	.
4DD/ 4D	.	8ryy	8e-\L	.	.
.	.	8ryy	8dt>\	.	.
8r	.	8ryy	8c\J	.	.
2GGG;/ 2GG	.	2ryy	2B-;>/ 2d 2g	.	.
*	*	*v	*v	*	*
==	==	==	==	==
*-	*-	*-	*-	*-
!!!RDF**kern: > = above
!!!RDF**kern: < = below
!!!system-decoration: {(s1,s2)}
!!!ENC: Berenika Jozajtis
!!!END: 2022-07-14
!!!ENC: Urszula Świątek
!!!END: 2022-08-19
!!!ENC-modern: Andrzej Borzym
!!!END-modern: 2022-08-30
!!!YEC: Copyright 2022 Narodowy Instytut Fryderyka Chopina (https://polishscores.org)
!!!YEM: License CC-BY-4.0 (https://creativecommons.org/licenses/by/4.0)
